X:0487
M:C
L:1/8
Q:1/2=104
K:G
ge |dBGB (d3 e)|dBGB     d2cB|cBcd efga|f2d2 d2
cB |cBcd  efge |dBAG {G}TF2ED|GBAc BdAc|B2G2 G2:|

